experiments/learned.cube
TITLE "poppy field"
LUT_3D_SIZE 33
DOMAIN_MIN 0.0 0.0 0.0
DOMAIN_MAX 1.0 1.0 1.0
0.103633 0.107586 0.116597
0.121107 0.120341 0.127357
0.149329 0.136843 0.139955
0.174881 0.142582 0.142280
0.179623 0.125206 0.124773
0.184701 0.103170 0.100357
0.191117 0.083512 0.076319
0.187080 0.067643 0.059067
0.158197 0.051159 0.051905
0.130395 0.035616 0.048736
0.129202 0.022711 0.040523
0.160665 0.014029 0.028255
0.201902 0.023593 0.036749
0.213822 0.078867 0.088246
0.200663 0.073989 0.086276
0.218755 0.153955 0.161725
0.215508 0.152758 0.159612
0.229000 0.123717 0.134161
0.274062 0.139230 0.146294
0.226122 0.234079 0.227696
0.280642 0.222562 0.213789
0.272528 0.232048 0.225242
0.520812 0.151857 0.159276
0.811209 0.019228 0.047940
0.501619 0.177558 0.186564
0.230789 0.205572 0.207875
0.571303 0.117975 0.122434
0.743757 0.054701 0.066398
0.686542 0.022936 0.037372
0.478889 0.005347 0.017953
0.212475 0.000000 0.001579
0.000000 0.000000 0.000000
0.000000 0.000000 0.000000
0.107049 0.120895 0.131379
0.128333 0.139280 0.147168
0.161440 0.163227 0.165866
0.182620 0.166963 0.165786
0.174357 0.137982 0.138557
0.176467 0.110935 0.109317
0.189335 0.091008 0.083044
0.196913 0.078469 0.065421
0.159467 0.063005 0.063272
0.126757 0.050997 0.067181
0.128247 0.044689 0.062813
0.165982 0.043493 0.051886
0.224032 0.073323 0.076361
0.231974 0.210177 0.206705
0.208183 0.162949 0.168426
0.214161 0.199534 0.196583
0.244873 0.166188 0.165690
0.249175 0.196501 0.192255
0.253185 0.214336 0.202181
0.187053 0.198159 0.197386
0.201549 0.154337 0.162000
0.328304 0.130765 0.138991
0.424796 0.120655 0.128470
0.638201 0.064787 0.076829
0.923008 0.009185 0.038884
0.926238 0.016899 0.032550
0.989987 0.024773 0.032077
0.944839 0.021493 0.032744
0.783272 0.018053 0.031082
0.536350 0.009499 0.020702
0.255371 0.000000 0.006343
0.012209 0.000000 0.000000
0.000000 0.000000 0.000000
0.102913 0.132516 0.146587
0.127513 0.158182 0.169632
0.161347 0.190801 0.197496
0.158257 0.177630 0.183822
0.146999 0.145238 0.152012
0.150390 0.119578 0.123371
0.176059 0.104496 0.098888
0.207513 0.096726 0.078795
0.151010 0.078772 0.082308
0.129663 0.070792 0.090481
0.156034 0.073207 0.080988
0.162132 0.086700 0.090771
0.198181 0.106988 0.108618
0.216875 0.201583 0.197319
0.243797 0.154163 0.146867
0.250686 0.145484 0.137734
0.288504 0.180353 0.164746
0.251098 0.184447 0.178748
0.314617 0.174655 0.163148
0.167904 0.206858 0.206609
0.350015 0.218242 0.202660
0.468132 0.128318 0.117377
0.475071 0.108182 0.106795
0.465513 0.127472 0.122374
0.627138 0.101359 0.110069
0.901141 0.041881 0.045896
1.000000 0.026509 0.016583
0.990038 0.035635 0.037146
0.834698 0.036745 0.042640
0.590792 0.026240 0.032033
0.309895 0.010914 0.015843
0.066781 0.000000 0.001489
0.000000 0.000000 0.000000
0.077690 0.121499 0.141107
0.097606 0.145347 0.163229
0.125050 0.176204 0.189821
0.134078 0.177641 0.188762
0.121295 0.154464 0.167924
0.107896 0.126732 0.141502
0.131950 0.118878 0.126443
0.170410 0.107659 0.102900
0.114528 0.091836 0.109799
0.159470 0.104038 0.111078
0.203145 0.100133 0.086896
0.192515 0.126274 0.128703
0.235798 0.144339 0.134977
0.252370 0.156591 0.138247
0.257939 0.154403 0.138743
0.278961 0.146363 0.142233
0.315507 0.136491 0.119954
0.286780 0.159421 0.143656
0.338330 0.211154 0.192544
0.281147 0.223986 0.214867
0.429454 0.152178 0.128664
0.585908 0.094851 0.072828
0.575389 0.090175 0.068200
0.469641 0.111103 0.099049
0.523370 0.165889 0.136578
0.855805 0.058974 0.066725
1.000000 0.039528 0.015273
0.919746 0.068458 0.051357
0.823480 0.070660 0.060401
0.614087 0.051114 0.044718
0.349118 0.027425 0.025054
0.114007 0.007649 0.009069
0.000000 0.000000 0.000415
0.040722 0.091440 0.116169
0.053949 0.109649 0.135172
0.077105 0.137185 0.161788
0.110515 0.164168 0.182459
0.109499 0.155842 0.173592
0.079781 0.127157 0.151048
0.095947 0.120978 0.140220
0.110992 0.100300 0.115186
0.149361 0.087632 0.099046
0.238588 0.088711 0.082850
0.224098 0.093037 0.086034
0.260391 0.132457 0.117451
0.252184 0.176595 0.155331
0.251568 0.135144 0.115858
0.266722 0.130593 0.114458
0.310836 0.109873 0.079122
0.346275 0.115206 0.081083
0.333962 0.180892 0.163107
0.371838 0.235940 0.212840
0.483431 0.146109 0.098668
0.431677 0.133480 0.116268
0.550922 0.124456 0.080867
0.567844 0.115314 0.076917
0.658800 0.101734 0.057387
0.708868 0.146452 0.101169
0.838965 0.080347 0.042835
0.933911 0.068497 0.025688
0.903753 0.081612 0.042985
0.809943 0.088592 0.054826
0.612305 0.068874 0.043772
0.361008 0.040384 0.026541
0.135782 0.015566 0.011662
0.004616 0.001630 0.003405
0.012221 0.060431 0.084375
0.024899 0.078043 0.103705
0.049507 0.107052 0.133483
0.084844 0.138650 0.160812
0.099496 0.149143 0.167292
0.081174 0.135318 0.158871
0.088455 0.129021 0.150676
0.099840 0.106163 0.121946
0.123427 0.084739 0.096236
0.172774 0.085367 0.090537
0.186781 0.124550 0.124214
0.216004 0.158791 0.147077
0.231456 0.156799 0.139579
0.249726 0.167241 0.146866
0.298194 0.193534 0.168831
0.326530 0.169295 0.136560
0.353596 0.185658 0.147262
0.382298 0.211369 0.189259
0.426931 0.193271 0.155524
0.453693 0.140787 0.098709
0.507800 0.119508 0.075452
0.598569 0.118166 0.044539
0.583030 0.096382 0.041625
0.620584 0.140394 0.089404
0.704236 0.109305 0.069331
0.814115 0.103574 0.038189
0.886175 0.105644 0.035128
0.926731 0.095257 0.023686
0.800302 0.099177 0.034132
0.588798 0.077888 0.030784
0.341404 0.046177 0.019712
0.124365 0.017868 0.008344
0.000000 0.001463 0.001352
0.000000 0.035878 0.052736
0.014125 0.057378 0.074943
0.046049 0.094988 0.111714
0.087996 0.137796 0.149891
0.112480 0.161183 0.170812
0.098876 0.153845 0.170202
0.101434 0.150738 0.167983
0.103521 0.133638 0.148571
0.114163 0.129096 0.139891
0.146801 0.148477 0.150780
0.170416 0.182902 0.178082
0.198785 0.218291 0.207561
0.237026 0.235983 0.219966
0.295570 0.249950 0.229356
0.330872 0.278751 0.253731
0.346964 0.248679 0.216601
0.377118 0.176228 0.127381
0.447234 0.153976 0.109264
0.495791 0.165826 0.095012
0.500869 0.167458 0.090029
0.523373 0.166088 0.099809
0.640932 0.135018 0.040236
0.630527 0.123305 0.045779
0.596187 0.160578 0.091755
0.686407 0.127473 0.061308
0.803823 0.132889 0.045976
0.875414 0.129002 0.032527
0.869780 0.119105 0.020451
0.734281 0.108035 0.021434
0.522551 0.079573 0.018276
0.284474 0.044153 0.010342
0.079205 0.013689 0.001826
0.000000 0.000000 0.000000
0.000000 0.014386 0.022345
0.007888 0.037963 0.046378
0.040917 0.078807 0.086980
0.080205 0.124389 0.130995
0.107128 0.156948 0.163447
0.113170 0.172114 0.180477
0.125981 0.181537 0.190224
0.125985 0.174668 0.182558
0.125893 0.173124 0.179140
0.146311 0.195923 0.195674
0.182698 0.234956 0.226828
0.244092 0.274606 0.256211
0.288490 0.276896 0.251831
0.338086 0.267764 0.243125
0.366431 0.255051 0.229251
0.375354 0.214747 0.175270
0.416136 0.147113 0.088190
0.496402 0.121799 0.039052
0.532721 0.143918 0.041435
0.535338 0.162220 0.062276
0.534533 0.171183 0.086639
0.606404 0.151667 0.057355
0.597364 0.164034 0.075458
0.606636 0.159119 0.078352
0.681975 0.134574 0.056452
0.768375 0.143542 0.046115
0.802399 0.142691 0.033171
0.754681 0.129030 0.020985
0.614099 0.105495 0.015087
0.414389 0.071717 0.009654
0.196092 0.034734 0.002366
0.010087 0.004069 0.000000
0.000000 0.000000 0.000000
0.000000 0.000000 0.000000
0.000868 0.018198 0.019396
0.031517 0.058876 0.061048
0.066620 0.105005 0.107956
0.094218 0.143848 0.147840
0.111831 0.171822 0.175987
0.136023 0.192115 0.194769
0.148985 0.200813 0.199378
0.161812 0.212206 0.206473
0.193602 0.243730 0.231325
0.243613 0.287674 0.267409
0.302164 0.310376 0.282741
0.336448 0.290997 0.261879
0.364509 0.248589 0.223069
0.355592 0.208331 0.177728
0.349693 0.172502 0.127354
0.394102 0.143829 0.078523
0.480960 0.134225 0.037415
0.533719 0.150495 0.032228
0.527077 0.174529 0.065151
0.495005 0.203387 0.115839
0.554635 0.191313 0.091853
0.584994 0.180238 0.078202
0.594199 0.151653 0.061844
0.631227 0.133087 0.046986
0.666780 0.137294 0.038169
0.658563 0.133810 0.028034
0.587182 0.115802 0.017356
0.453132 0.087681 0.009505
0.278671 0.053990 0.003254
0.093425 0.019680 0.000000
0.000000 0.000000 0.000000
0.000000 0.000000 0.000000
0.000000 0.000000 0.000000
0.000000 0.000000 0.000000
0.018789 0.037520 0.036435
0.049260 0.081647 0.083128
0.076091 0.121950 0.125849
0.099685 0.155080 0.159388
0.132249 0.184784 0.184751
0.166120 0.209599 0.199789
0.195532 0.231721 0.213913
0.230244 0.262106 0.238064
0.270818 0.290897 0.263245
0.312860 0.299982 0.270679
0.336834 0.287930 0.258944
0.350037 0.257738 0.229199
0.329405 0.210328 0.175640
0.310191 0.169913 0.126384
0.318959 0.137706 0.083067
0.360023 0.126384 0.053631
0.419385 0.147771 0.056710
0.445853 0.182808 0.089995
0.447743 0.210499 0.123937
0.492689 0.201549 0.104576
0.523940 0.179760 0.078326
0.529183 0.149382 0.055326
0.529400 0.128614 0.039964
0.515325 0.119349 0.029329
0.471718 0.106619 0.019392
0.391115 0.085188 0.009989
0.276362 0.058503 0.002972
0.140262 0.030403 0.000000
0.000021 0.003035 0.000000
0.000000 0.000000 0.000000
0.000000 0.000000 0.000000
0.000000 0.000000 0.000000
0.000000 0.000000 0.000000
0.004930 0.016892 0.014537
0.030197 0.055902 0.057264
0.055625 0.094358 0.099036
0.083179 0.129965 0.135173
0.121922 0.166670 0.165916
0.169505 0.203715 0.190786
0.209196 0.232156 0.209254
0.244601 0.259042 0.229142
0.275526 0.279528 0.248152
0.302117 0.287330 0.257023
0.316464 0.279989 0.250485
0.313891 0.255412 0.226546
0.289826 0.216615 0.185694
0.248965 0.172761 0.143119
0.200599 0.126776 0.102881
0.183104 0.106091 0.082524
0.236988 0.121985 0.082775
0.297723 0.156456 0.102392
0.340527 0.181206 0.116093
0.384049 0.178190 0.099694
0.408006 0.158026 0.073223
0.405089 0.130513 0.049146
0.381774 0.106761 0.031886
0.338430 0.087969 0.019366
0.276389 0.068611 0.009231
0.199736 0.046954 0.001224
0.113557 0.025630 0.000000
0.023274 0.006635 0.000000
0.000000 0.000000 0.000000
0.000000 0.000000 0.000000
0.000000 0.000000 0.000000
0.000000 0.000000 0.000000
0.000000 0.000000 0.000000
0.000000 0.000000 0.000000
0.010877 0.029874 0.031272
0.032906 0.063441 0.068414
0.060262 0.098476 0.104467
0.098847 0.137481 0.139085
0.148833 0.179702 0.171037
0.195168 0.213955 0.194760
0.238071 0.244413 0.216226
0.274076 0.267811 0.235568
0.298122 0.279597 0.246138
0.303677 0.274561 0.242172
0.285381 0.249705 0.220933
0.242712 0.208381 0.185402
0.177771 0.158228 0.146113
0.098040 0.105031 0.108849
0.054174 0.076908 0.089393
0.082672 0.083190 0.086552
0.144514 0.110353 0.095637
0.201151 0.130743 0.097254
0.242556 0.130681 0.081336
0.259511 0.114691 0.057558
0.249826 0.091283 0.035344
0.217046 0.068282 0.018864
0.165548 0.047481 0.007144
0.103695 0.027945 0.000000
0.042566 0.010458 0.000000
0.000000 0.000000 0.000000
0.000000 0.000000 0.000000
0.000000 0.000000 0.000000
0.000000 0.000000 0.000000
0.000000 0.000000 0.000000
0.000000 0.000000 0.000000
0.000000 0.000000 0.000000
0.000000 0.000000 0.000000
0.000000 0.005745 0.006659
0.009006 0.031145 0.035436
0.032896 0.062295 0.068033
0.067687 0.099985 0.103488
0.112921 0.141942 0.138913
0.160687 0.180517 0.168684
0.212120 0.218348 0.196522
0.260429 0.250902 0.220709
0.293442 0.270725 0.234723
0.299842 0.270755 0.234214
0.273406 0.247320 0.216434
0.216291 0.203212 0.183706
0.135252 0.147564 0.145061
0.045731 0.091600 0.108705
0.000000 0.057079 0.086427
0.000000 0.051925 0.078561
0.027277 0.065060 0.078179
0.070927 0.075644 0.071184
0.101724 0.073458 0.054095
0.111197 0.060023 0.032950
0.099287 0.041556 0.014451
0.069018 0.023425 0.001708
0.025331 0.007294 0.000000
0.000000 0.000000 0.000000
0.000000 0.000000 0.000000
0.000000 0.000000 0.000000
0.000000 0.000000 0.000000
0.000000 0.000000 0.000000
0.000000 0.000000 0.000000
0.000000 0.000000 0.000000
0.000000 0.000000 0.000000
0.000000 0.000000 0.000000
0.000000 0.000000 0.000000
0.000000 0.000000 0.000000
0.000000 0.001951 0.004725
0.005536 0.026117 0.030473
0.034983 0.059670 0.063187
0.074755 0.099609 0.099234
0.121262 0.140894 0.133693
0.176387 0.184406 0.167100
0.231737 0.224028 0.195733
0.271434 0.249975 0.213271
0.283517 0.255891 0.217063
0.262618 0.239251 0.205264
0.206415 0.199250 0.177768
0.122188 0.143204 0.140808
0.033687 0.087507 0.105107
0.000000 0.047772 0.079041
0.000000 0.030078 0.063738
0.000000 0.027391 0.053928
0.000000 0.026390 0.040834
0.000000 0.019810 0.023173
0.000000 0.007945 0.005184
0.000000 0.000000 0.000000
0.000000 0.000000 0.000000
0.000000 0.000000 0.000000
0.000000 0.000000 0.000000
0.000000 0.000000 0.000000
0.000000 0.000000 0.000000
0.000000 0.000000 0.000000
0.000000 0.000000 0.000000
0.000000 0.000000 0.000000
0.002134 0.003939 0.001624
0.000000 0.000000 0.000000
0.000000 0.000000 0.000000
0.000000 0.000000 0.000000
0.000000 0.000000 0.000000
0.000000 0.000000 0.000000
0.000000 0.000000 0.000000
0.009027 0.025648 0.027010
0.045766 0.063564 0.061573
0.091772 0.106355 0.097989
0.145108 0.151044 0.133224
0.196339 0.190024 0.161920
0.232673 0.215001 0.179101
0.246721 0.222970 0.184455
0.234213 0.212653 0.177469
0.190361 0.181812 0.157200
0.116651 0.132770 0.125576
0.038288 0.082418 0.093330
0.000000 0.042690 0.066826
0.000000 0.016988 0.046481
0.000000 0.002189 0.029854
0.000000 0.000000 0.012756
0.000000 0.000000 0.000000
0.000000 0.000000 0.000000
0.000000 0.000000 0.000000
0.000000 0.000000 0.000000
0.000000 0.000000 0.000000
0.000000 0.000000 0.000000
0.000000 0.000000 0.000000
0.000000 0.000000 0.000000
0.000000 0.000000 0.000000
0.000000 0.000958 0.000000
0.032415 0.010461 0.002905
0.054390 0.016377 0.004912
0.000000 0.002486 0.000000
0.000000 0.000000 0.000000
0.000000 0.000000 0.000000
0.000000 0.000000 0.000000
0.000000 0.000000 0.000000
0.000000 0.000000 0.000000
0.000000 0.002187 0.000734
0.024827 0.035786 0.030758
0.067331 0.075779 0.064486
0.113994 0.116350 0.096796
0.154385 0.148749 0.121247
0.179905 0.166794 0.134050
0.188480 0.170798 0.136608
0.179219 0.162216 0.130739
0.148719 0.140188 0.116524
0.096761 0.105207 0.094314
0.039792 0.067961 0.070621
0.000000 0.035362 0.048712
0.000000 0.009102 0.028469
0.000000 0.000000 0.009571
0.000000 0.000000 0.000000
0.000000 0.000000 0.000000
0.000000 0.000000 0.000000
0.000000 0.000000 0.000000
0.000000 0.000000 0.000000
0.000000 0.000000 0.000000
0.000000 0.000000 0.000000
0.000000 0.000000 0.000000
0.000000 0.000000 0.000000
0.000000 0.001134 0.000066
0.025722 0.009533 0.002223
0.055034 0.016827 0.004057
0.073465 0.021884 0.005809
0.005773 0.012617 0.004158
0.000000 0.003945 0.000000
0.000000 0.000000 0.000000
0.000000 0.000000 0.000000
0.000000 0.000000 0.000000
0.000000 0.000000 0.000000
0.000000 0.000000 0.000000
0.007469 0.014349 0.007545
0.041586 0.046266 0.033924
0.077372 0.077766 0.058835
0.105223 0.100768 0.076381
0.119182 0.110456 0.083387
0.120937 0.109397 0.082320
0.113074 0.101364 0.076579
0.095094 0.087517 0.067638
0.066641 0.067973 0.055562
0.034501 0.046622 0.042277
0.003368 0.025491 0.028090
0.000000 0.004432 0.012035
0.000000 0.000000 0.000000
0.000000 0.000000 0.000000
0.000000 0.000000 0.000000
0.000000 0.000000 0.000000
0.000000 0.000000 0.000000
0.000000 0.000000 0.000000
0.000000 0.000000 0.000000
0.000000 0.000000 0.000000
0.002110 0.005224 0.002674
0.011981 0.008715 0.003717
0.022532 0.010871 0.003120
0.035817 0.013472 0.002658
0.048747 0.016393 0.002982
0.057753 0.019194 0.004227
0.010469 0.018926 0.009881
0.003214 0.010618 0.002346
0.000000 0.000000 0.000000
0.000000 0.000000 0.000000
0.000000 0.000000 0.000000
0.000000 0.000000 0.000000
0.000000 0.000000 0.000000
0.000000 0.000000 0.000000
0.014876 0.018946 0.008064
0.037687 0.038883 0.023508
0.053652 0.051846 0.033247
0.059234 0.054836 0.035218
0.057321 0.050867 0.031869
0.052103 0.044550 0.027081
0.045217 0.038234 0.022995
0.035713 0.031436 0.019236
0.024650 0.024114 0.015204
0.011046 0.014505 0.008897
0.000000 0.001194 0.000000
0.000000 0.000000 0.000000
0.000000 0.000000 0.000000
0.000000 0.000000 0.000000
0.000000 0.000000 0.000000
0.000000 0.000000 0.000000
0.000000 0.000000 0.000000
0.002818 0.000929 0.000000
0.024224 0.013982 0.005704
0.037015 0.019974 0.009310
0.038247 0.018941 0.007425
0.033528 0.015289 0.003880
0.028591 0.012279 0.001260
0.025732 0.011153 0.000533
0.025452 0.011797 0.001381
0.011549 0.020850 0.011470
0.006162 0.014447 0.005600
0.000000 0.003988 0.000000
0.000000 0.000000 0.000000
0.000000 0.000000 0.000000
0.000000 0.000000 0.000000
0.000000 0.000000 0.000000
0.000000 0.000000 0.000000
0.000000 0.000000 0.000000
0.004218 0.007727 0.000000
0.009905 0.011807 0.000000
0.009280 0.009594 0.000000
0.005582 0.004172 0.000000
0.002924 0.000000 0.000000
0.003516 0.000000 0.000000
0.006169 0.000131 0.000000
0.008659 0.002214 0.000000
0.007835 0.001623 0.000000
0.001526 0.000000 0.000000
0.000000 0.000000 0.000000
0.000000 0.000000 0.000000
0.000000 0.000000 0.000000
0.000000 0.000000 0.000000
0.000000 0.000000 0.000000
0.011574 0.003510 0.000000
0.028667 0.017315 0.006025
0.040876 0.025180 0.012121
0.045714 0.025953 0.011931
0.040852 0.020911 0.007328
0.029079 0.014023 0.002177
0.015983 0.008383 0.000000
0.006535 0.005884 0.000000
0.002564 0.005945 0.000000
0.009675 0.019389 0.009876
0.006658 0.015488 0.006234
0.001496 0.009058 0.000276
0.000000 0.001970 0.000000
0.000000 0.000000 0.000000
0.000000 0.000000 0.000000
0.000000 0.000000 0.000000
0.000000 0.000000 0.000000
0.000000 0.000000 0.000000
0.000000 0.000000 0.000000
0.000000 0.000000 0.000000
0.000000 0.000000 0.000000
0.000000 0.000000 0.000000
0.000000 0.000000 0.000000
0.000000 0.000000 0.000000
0.000000 0.000000 0.000000
0.000000 0.000000 0.000000
0.000000 0.000000 0.000000
0.000000 0.000000 0.000000
0.000000 0.000000 0.000000
0.000000 0.000000 0.000000
0.000000 0.000000 0.000000
0.003769 0.000000 0.000000
0.016705 0.005900 0.000000
0.030456 0.018224 0.005225
0.039020 0.026451 0.012540
0.040099 0.027672 0.013771
0.035763 0.023163 0.009909
0.027981 0.015933 0.003853
0.017795 0.009310 0.000000
0.008441 0.005370 0.000000
0.002549 0.004492 0.000000
0.000000 0.005105 0.000000
0.005634 0.015396 0.005887
0.005210 0.014405 0.004871
0.004316 0.012619 0.003087
0.002265 0.009820 0.000574
0.000000 0.005215 0.000000
0.000000 0.000000 0.000000
0.000000 0.000000 0.000000
0.000000 0.000000 0.000000
0.000000 0.000000 0.000000
0.000000 0.000000 0.000000
0.000000 0.000000 0.000000
0.000000 0.000000 0.000000
0.000000 0.000000 0.000000
0.000000 0.000000 0.000000
0.000000 0.000000 0.000000
0.000000 0.000000 0.000000
0.000000 0.000000 0.000000
0.000000 0.000000 0.000000
0.000000 0.000000 0.000000
0.000000 0.000000 0.000000
0.001079 0.000000 0.000000
0.006447 0.000098 0.000000
0.015479 0.007604 0.000000
0.026126 0.016929 0.004213
0.034789 0.024820 0.011113
0.036707 0.027356 0.013710
0.030463 0.023341 0.010919
0.020159 0.015530 0.004890
0.011655 0.008203 0.000000
0.007281 0.004541 0.000000
0.006209 0.004378 0.000000
0.007818 0.006354 0.000000
0.010203 0.008688 0.001098
0.001316 0.011015 0.001468
0.002636 0.012070 0.002321
0.004802 0.013779 0.003724
0.006234 0.014676 0.004522
0.004840 0.012778 0.003015
0.000613 0.008062 0.000000
0.000000 0.003103 0.000000
0.000000 0.000000 0.000000
0.000000 0.000000 0.000000
0.000000 0.000000 0.000000
0.000000 0.000000 0.000000
0.000000 0.000000 0.000000
0.000000 0.000000 0.000000
0.000000 0.000000 0.000000
0.000000 0.000000 0.000000
0.000000 0.000000 0.000000
0.000000 0.000000 0.000000
0.000000 0.000000 0.000000
0.000000 0.000000 0.000000
0.001428 0.001065 0.000000
0.005988 0.004666 0.000000
0.011544 0.009041 0.000000
0.018695 0.014968 0.003604
0.025202 0.020632 0.008522
0.028301 0.023557 0.011219
0.025676 0.021559 0.009886
0.017428 0.015097 0.004878
0.007227 0.007349 0.000000
0.001088 0.002391 0.000000
0.002799 0.002858 0.000000
0.008456 0.006261 0.000000
0.014400 0.009775 0.000395
0.019258 0.012473 0.002457
0.000000 0.007867 0.000000
0.000200 0.009888 0.000000
0.003737 0.013228 0.002800
0.006721 0.015832 0.005113
0.007383 0.015953 0.005329
0.005453 0.013416 0.003229
0.002889 0.010340 0.000691
0.001480 0.008499 0.000000
0.000684 0.007197 0.000000
0.000000 0.005238 0.000000
0.000000 0.002116 0.000000
0.000000 0.000000 0.000000
0.000000 0.000000 0.000000
0.000000 0.000000 0.000000
0.000000 0.000000 0.000000
0.000000 0.000000 0.000000
0.000000 0.000000 0.000000
0.000000 0.003075 0.000000
0.003745 0.006422 0.000000
0.006674 0.008849 0.000000
0.009490 0.010978 0.001060
0.012926 0.013528 0.003264
0.016713 0.016554 0.005829
0.018976 0.018412 0.007436
0.017851 0.017474 0.006807
0.013207 0.013283 0.003448
0.007253 0.007802 0.000000
0.002392 0.003415 0.000000
0.001223 0.002269 0.000000
0.006097 0.005550 0.000000
0.013239 0.010009 0.000175
0.018045 0.012484 0.001779
0.020271 0.013196 0.002134
0.000000 0.007373 0.000000
0.000000 0.009009 0.000000
0.001863 0.011749 0.001111
0.004639 0.014173 0.003239
0.006134 0.015117 0.004088
0.006285 0.014669 0.003704
0.006003 0.013941 0.003170
0.006168 0.013751 0.003188
0.006730 0.013847 0.003379
0.007312 0.013836 0.003350
0.007510 0.013405 0.002865
0.006866 0.012165 0.001630
0.005803 0.010625 0.000157
0.005165 0.009617 0.000000
0.005325 0.009557 0.000000
0.006335 0.010492 0.000000
0.007824 0.011908 0.001336
0.009111 0.013091 0.002582
0.009837 0.013593 0.003259
0.010277 0.013613 0.003451
0.010875 0.013641 0.003519
0.011990 0.014088 0.003829
0.013055 0.014623 0.004187
0.012679 0.013962 0.003585
0.010127 0.011448 0.001500
0.006347 0.007744 0.000000
0.003866 0.004867 0.000000
0.004416 0.004312 0.000000
0.008032 0.006581 0.000000
0.013417 0.010662 0.000123
0.017210 0.013315 0.002292
0.017441 0.012939 0.001900
0.015691 0.011147 0.000420
0.000000 0.009202 0.000000
0.000000 0.009753 0.000000
0.000475 0.010753 0.000000
0.001878 0.011735 0.000727
0.003161 0.012475 0.001332
0.004455 0.013248 0.001928
0.005498 0.013879 0.002518
0.006524 0.014533 0.003233
0.007923 0.015527 0.004211
0.009731 0.016880 0.005453
0.011705 0.018344 0.006719
0.013194 0.019263 0.007447
0.014081 0.019609 0.007667
0.014494 0.019577 0.007594
0.014644 0.019381 0.007436
0.014471 0.019012 0.007218
0.013836 0.018250 0.006725
0.012808 0.017058 0.005876
0.011426 0.015402 0.004588
0.010262 0.013790 0.003218
0.009644 0.012593 0.002111
0.009515 0.011885 0.001342
0.009443 0.011314 0.000721
0.008411 0.009925 0.000000
0.006903 0.008088 0.000000
0.005692 0.006466 0.000000
0.006425 0.006472 0.000000
0.009546 0.008338 0.000000
0.014326 0.011604 0.000214
0.018214 0.014511 0.002703
0.018433 0.014720 0.003095
0.015039 0.012014 0.001039
0.010723 0.008559 0.000000
0.000000 0.011290 0.000014
0.000080 0.011199 0.000000
0.000193 0.010921 0.000000
0.000161 0.010386 0.000000
0.000950 0.010668 0.000000
0.002588 0.011856 0.000346
0.003726 0.012546 0.000915
0.004384 0.012764 0.001148
0.005604 0.013583 0.001930
0.007392 0.014991 0.003241
0.009580 0.016794 0.004895
0.011600 0.018392 0.006317
0.013133 0.019466 0.007268
0.014009 0.019884 0.007641
0.014126 0.019564 0.007388
0.013572 0.018580 0.006588
0.012351 0.016976 0.005248
0.010778 0.014978 0.003558
0.009217 0.012937 0.001752
0.008185 0.011358 0.000284
0.007767 0.010350 0.000000
0.007915 0.009967 0.000000
0.008045 0.009621 0.000000
0.007879 0.009043 0.000000
0.008099 0.008773 0.000000
0.009138 0.009215 0.000000
0.011470 0.010821 0.000000
0.013924 0.012540 0.000809
0.016042 0.013969 0.002035
0.016748 0.014262 0.002443
0.015896 0.013348 0.001826
0.013584 0.011330 0.000166
0.010471 0.008741 0.000000
0.001050 0.012883 0.000921
0.000799 0.012401 0.000544
0.000180 0.011357 0.000000
0.000000 0.010479 0.000000
0.000466 0.010657 0.000000
0.001683 0.011437 0.000000
0.002352 0.011625 0.000000
0.002517 0.011312 0.000000
0.003038 0.011399 0.000000
0.004012 0.011955 0.000100
0.005293 0.012838 0.000938
0.006723 0.013887 0.001912
0.007820 0.014600 0.002595
0.008531 0.014897 0.002903
0.008667 0.014581 0.002657
0.008307 0.013708 0.001902
0.007742 0.012583 0.000893
0.007033 0.011281 0.000000
0.006755 0.010394 0.000000
0.006860 0.009911 0.000000
0.007461 0.009975 0.000000
0.008283 0.010341 0.000000
0.008904 0.010556 0.000000
0.009606 0.010872 0.000000
0.010592 0.011428 0.000000
0.012051 0.012386 0.000410
0.013581 0.013360 0.001315
