experiments/learned.cube
TITLE "poppy field"
LUT_3D_SIZE 9
DOMAIN_MIN 0.0 0.0 0.0
DOMAIN_MAX 1.0 1.0 1.0
0.103633 0.107586 0.116597
0.179623 0.125206 0.124773
0.158197 0.051159 0.051905
0.201902 0.023593 0.036749
0.215508 0.152758 0.159612
0.280642 0.222562 0.213789
0.501619 0.177558 0.186564
0.686542 0.022936 0.037372
0.000000 0.000000 0.000000
0.040722 0.091440 0.116169
0.109499 0.155842 0.173592
0.149361 0.087632 0.099046
0.252184 0.176595 0.155331
0.346275 0.115206 0.081083
0.431677 0.133480 0.116268
0.708868 0.146452 0.101169
0.809943 0.088592 0.054826
0.004616 0.001630 0.003405
0.000000 0.000000 0.000000
0.094218 0.143848 0.147840
0.161812 0.212206 0.206473
0.336448 0.290997 0.261879
0.394102 0.143829 0.078523
0.495005 0.203387 0.115839
0.631227 0.133087 0.046986
0.453132 0.087681 0.009505
0.000000 0.000000 0.000000
0.000000 0.000000 0.000000
0.009006 0.031145 0.035436
0.160687 0.180517 0.168684
0.299842 0.270755 0.234214
0.045731 0.091600 0.108705
0.070927 0.075644 0.071184
0.069018 0.023425 0.001708
0.000000 0.000000 0.000000
0.000000 0.000000 0.000000
0.005773 0.012617 0.004158
0.000000 0.000000 0.000000
0.041586 0.046266 0.033924
0.120937 0.109397 0.082320
0.034501 0.046622 0.042277
0.000000 0.000000 0.000000
0.000000 0.000000 0.000000
0.011981 0.008715 0.003717
0.057753 0.019194 0.004227
0.005634 0.015396 0.005887
0.000000 0.005215 0.000000
0.000000 0.000000 0.000000
0.000000 0.000000 0.000000
0.000000 0.000000 0.000000
0.001079 0.000000 0.000000
0.034789 0.024820 0.011113
0.011655 0.008203 0.000000
0.010203 0.008688 0.001098
0.000000 0.009202 0.000000
0.003161 0.012475 0.001332
0.007923 0.015527 0.004211
0.014081 0.019609 0.007667
0.013836 0.018250 0.006725
0.009644 0.012593 0.002111
0.006903 0.008088 0.000000
0.014326 0.011604 0.000214
0.010723 0.008559 0.000000
0.000080 0.012858 0.000120
0.002012 0.013191 0.000387
0.003061 0.012383 0.000000
0.003552 0.010932 0.000000
0.005942 0.011473 0.000000
0.009741 0.013632 0.000731
0.012054 0.014204 0.001371
0.012332 0.012608 0.000000
0.015258 0.013753 0.000906
0.000182 0.014573 0.000192
0.001751 0.014541 0.000161
0.003576 0.014534 0.000156
0.005308 0.014421 0.000041
0.007056 0.014335 0.000000
0.009014 0.014482 0.000067
0.011365 0.015058 0.000632
0.012688 0.014497 0.000135
0.014407 0.014615 0.000206
0.000000 0.000000 0.006999
0.056560 0.025408 0.050688
0.090010 0.023367 0.021613
0.058198 0.067472 0.069680
0.058983 0.103868 0.106291
0.231593 0.016457 0.022350
0.443873 0.073427 0.080704
0.362412 0.007282 0.028732
0.000000 0.000000 0.000000
0.057930 0.080683 0.092955
0.147709 0.208747 0.218401
0.267715 0.194170 0.173026
0.280113 0.224205 0.189910
0.316324 0.221526 0.188163
0.528021 0.104810 0.084872
0.754886 0.107592 0.081620
0.970731 0.087345 0.078328
0.236438 0.021738 0.023475
0.015657 0.027671 0.027075
0.175491 0.210562 0.210638
0.173574 0.181131 0.184980
0.267001 0.270356 0.253654
0.345617 0.211895 0.168005
0.459428 0.235671 0.157433
0.766900 0.232948 0.081718
0.748603 0.169202 0.049351
0.173986 0.028664 0.013047
0.000000 0.000000 0.000000
0.120880 0.140433 0.129000
0.270552 0.270812 0.242823
0.284003 0.267071 0.245077
0.487112 0.378263 0.298006
0.458895 0.300720 0.213223
0.397048 0.185555 0.086571
0.090864 0.037377 0.010634
0.000000 0.000000 0.000000
0.000000 0.000000 0.000000
0.021039 0.025191 0.015575
0.227454 0.222066 0.177203
0.208233 0.219406 0.201006
0.302155 0.290833 0.260250
0.166370 0.160067 0.134900
0.000000 0.000000 0.000000
0.000000 0.000000 0.000000
0.027276 0.011284 0.003305
0.005995 0.015408 0.007326
0.000000 0.000000 0.000000
0.004355 0.009288 0.000000
0.013717 0.020609 0.012201
0.053144 0.051422 0.037211
0.000000 0.000660 0.000000
0.000000 0.000000 0.000000
0.034168 0.023169 0.012164
0.002409 0.002024 0.000000
0.000000 0.009261 0.000299
0.005411 0.014621 0.004754
0.002309 0.009868 0.001116
0.000000 0.001726 0.000000
0.000000 0.000895 0.000000
0.007992 0.010001 0.001094
0.020995 0.020730 0.010209
0.006896 0.007328 0.000000
0.020120 0.014610 0.004256
0.000994 0.013792 0.002546
0.001049 0.012262 0.001252
0.002566 0.011785 0.000763
0.005721 0.013364 0.002307
0.008261 0.014197 0.003021
0.008357 0.012298 0.001306
0.008098 0.010083 0.000000
0.014302 0.014235 0.002866
0.013126 0.012125 0.001197
0.000274 0.014670 0.001912
0.001750 0.014562 0.001820
0.003498 0.014419 0.001698
0.005909 0.015114 0.002332
0.007932 0.015298 0.002492
0.009981 0.015505 0.002691
0.010811 0.014513 0.001816
0.012863 0.014624 0.001843
0.014543 0.014764 0.002030
0.000000 0.000000 0.000000
0.000000 0.000000 0.000000
0.000000 0.000000 0.000000
0.000000 0.000000 0.000000
0.000000 0.000000 0.000000
0.000000 0.000000 0.000000
0.000000 0.000000 0.000000
0.000000 0.000000 0.000000
0.000000 0.000000 0.000000
0.000000 0.000000 0.000000
0.029115 0.042775 0.054395
0.136446 0.099620 0.103454
0.151334 0.098099 0.090811
0.094009 0.076913 0.072366
0.364386 0.081268 0.058177
0.600898 0.088517 0.057644
0.444531 0.056555 0.042573
0.080149 0.006067 0.010804
0.000000 0.000000 0.000000
0.062348 0.080930 0.094967
0.206609 0.245813 0.262225
0.377424 0.328269 0.307818
0.344914 0.257468 0.215558
0.625683 0.218220 0.125628
0.725689 0.229342 0.117503
0.763827 0.205803 0.092969
0.197649 0.046708 0.026960
0.000000 0.000000 0.000000
0.077459 0.098054 0.097290
0.292069 0.312343 0.290229
0.284923 0.281472 0.257909
0.516098 0.406653 0.338621
0.624838 0.308905 0.213226
0.705410 0.370908 0.237355
0.268648 0.107076 0.049965
0.000000 0.000000 0.000580
0.000000 0.000000 0.000000
0.025557 0.032473 0.026357
0.327530 0.325107 0.272602
0.357684 0.346639 0.297750
0.359658 0.348495 0.301221
0.542339 0.446609 0.368657
0.173795 0.128833 0.099711
0.000000 0.000000 0.000000
0.028768 0.015216 0.009644
0.008948 0.018594 0.012114
0.000000 0.000000 0.000000
0.013771 0.017617 0.009138
0.109699 0.110279 0.087164
0.152339 0.160936 0.132501
0.080767 0.076836 0.057241
0.000000 0.000000 0.000000
0.000000 0.000000 0.000000
0.030559 0.020925 0.013604
0.000000 0.008318 0.001334
0.007538 0.016867 0.008794
0.000000 0.002854 0.000000
0.000000 0.000000 0.000000
0.000000 0.000000 0.000000
0.000000 0.000000 0.000000
0.003540 0.001764 0.000000
0.026878 0.021761 0.012700
0.005841 0.004593 0.000000
0.001180 0.013986 0.004633
0.000334 0.011471 0.002422
0.004166 0.013544 0.004330
0.010034 0.018114 0.008402
0.014353 0.019858 0.009637
0.017499 0.021188 0.010771
0.013984 0.016357 0.006836
0.008671 0.009529 0.000745
0.016489 0.014525 0.004996
0.000278 0.014670 0.003820
0.001525 0.014285 0.003459
0.004236 0.015248 0.004342
0.005486 0.014539 0.003697
0.007266 0.014463 0.003629
0.009399 0.014791 0.003965
0.012653 0.016194 0.005205
0.013501 0.015226 0.004442
0.012818 0.013333 0.002649
0.006656 0.007472 0.014008
0.003320 0.000845 0.005143
0.000000 0.000000 0.000960
0.001992 0.000000 0.002560
0.025261 0.005210 0.009359
0.000000 0.000000 0.005369
0.000000 0.000000 0.001409
0.000000 0.000000 0.001701
0.053141 0.006345 0.009047
0.000000 0.000000 0.002921
0.000000 0.000000 0.000000
0.000000 0.000000 0.000148
0.007860 0.000306 0.004000
0.000000 0.000000 0.000000
0.007473 0.000000 0.000000
0.064944 0.006718 0.008570
0.000000 0.000000 0.000341
0.000000 0.000000 0.000000
0.000000 0.000000 0.000259
0.000000 0.000000 0.000000
0.116700 0.137983 0.148298
0.279952 0.265729 0.268225
0.215443 0.142411 0.136455
0.478550 0.174254 0.112629
0.573741 0.165517 0.100265
0.135189 0.040122 0.023179
0.000000 0.000000 0.000000
0.000002 0.004116 0.003166
0.000000 0.000000 0.000000
0.088789 0.144314 0.166395
0.365180 0.381045 0.364414
0.524505 0.411134 0.365504
0.635219 0.415117 0.337545
0.849135 0.345969 0.217139
0.204377 0.081294 0.050003
0.000000 0.000000 0.000000
0.004983 0.012365 0.010059
0.000000 0.000000 0.000000
0.185890 0.213362 0.204910
0.428425 0.447146 0.414434
0.495927 0.337863 0.280969
0.755141 0.601958 0.505872
0.677579 0.448391 0.354618
0.113341 0.047892 0.038576
0.002487 0.002781 0.002651
0.005288 0.014857 0.010784
0.000000 0.000000 0.000000
0.003718 0.009067 0.006842
0.190702 0.208133 0.189238
0.404669 0.440974 0.386523
0.355240 0.339902 0.286508
0.191006 0.174258 0.154257
0.000000 0.000000 0.000000
0.022163 0.017502 0.012364
0.000000 0.008309 0.003121
0.007659 0.017247 0.011168
0.000000 0.000000 0.000000
0.000000 0.000000 0.000000
0.000000 0.004658 0.001048
0.000000 0.000000 0.000000
0.000000 0.000000 0.000000
0.000000 0.000000 0.000000
0.033662 0.025639 0.018436
0.000708 0.013534 0.006183
0.000000 0.011000 0.003795
0.005813 0.015475 0.007993
0.011087 0.018705 0.010904
0.011614 0.016114 0.008298
0.013287 0.016225 0.008603
0.023429 0.024530 0.016066
0.022909 0.021685 0.013471
0.008340 0.008120 0.001492
0.000281 0.014680 0.005711
0.001504 0.014282 0.005362
0.004082 0.015051 0.006049
0.006092 0.015158 0.006141
0.005111 0.012214 0.003283
0.003826 0.009224 0.000509
0.004453 0.008375 0.000000
0.011137 0.013316 0.004409
0.016896 0.016632 0.007400
0.000000 0.000000 0.004022
0.002367 0.001428 0.009185
0.010526 0.006616 0.014190
0.010747 0.006921 0.015069
0.019364 0.008268 0.014665
0.031928 0.006354 0.010998
0.031201 0.005715 0.010882
0.029473 0.003964 0.009777
0.003431 0.000000 0.005996
0.000918 0.002937 0.008978
0.004323 0.004216 0.009806
0.000000 0.000000 0.000000
0.000000 0.000000 0.000000
0.000000 0.000000 0.000000
0.000000 0.000000 0.000000
0.000000 0.000000 0.000660
0.000000 0.000000 0.005560
0.039354 0.008130 0.010979
0.002581 0.007309 0.011927
0.000000 0.000000 0.000000
0.000000 0.000000 0.000000
0.026257 0.032644 0.040995
0.000000 0.000000 0.001159
0.023595 0.000000 0.000000
0.051491 0.012667 0.013065
0.000000 0.000000 0.000000
0.028608 0.008521 0.010400
0.004951 0.011859 0.014376
0.000000 0.000000 0.000000
0.006768 0.015179 0.022120
0.303869 0.345463 0.366692
0.372263 0.348545 0.346830
0.473726 0.259130 0.219593
0.516390 0.230139 0.163783
0.097358 0.041970 0.033607
0.000000 0.000000 0.002266
0.002718 0.010856 0.011166
0.000000 0.000000 0.000000
0.004321 0.011692 0.013350
0.366320 0.408667 0.411152
0.594696 0.592841 0.571938
0.731898 0.589595 0.529585
0.865194 0.576946 0.478761
0.306605 0.162479 0.135695
0.000000 0.000000 0.000000
0.000000 0.007195 0.005577
0.004425 0.012054 0.010079
0.000000 0.000000 0.000000
0.155776 0.174014 0.168432
0.411570 0.441373 0.413328
0.635244 0.595348 0.525037
0.615824 0.491928 0.417861
0.117972 0.083242 0.072596
0.000000 0.000000 0.000000
0.000000 0.010824 0.007181
0.004448 0.014088 0.010466
0.000679 0.007277 0.003421
0.000000 0.000000 0.000000
0.009124 0.019255 0.015628
0.053676 0.058393 0.047709
0.006453 0.003825 0.000000
0.000000 0.000000 0.000000
0.005961 0.002570 0.000000
0.000000 0.012597 0.007210
0.000877 0.011877 0.006375
0.004893 0.014654 0.009269
0.014071 0.022046 0.016128
0.000000 0.001784 0.000000
0.000000 0.000000 0.000000
0.000000 0.000000 0.000000
0.005709 0.007164 0.002288
0.024887 0.021427 0.014868
0.000143 0.014531 0.007451
0.001215 0.013925 0.006830
0.005504 0.016703 0.009611
0.002440 0.011016 0.003802
0.002373 0.009709 0.002950
0.008115 0.014362 0.007791
0.014257 0.017871 0.010921
0.010218 0.011671 0.004519
0.013458 0.014243 0.007234
0.000591 0.000811 0.010150
0.002365 0.000612 0.009658
0.001273 0.000000 0.006915
0.004183 0.000000 0.006527
0.000000 0.000000 0.003886
0.000479 0.000000 0.006640
0.006455 0.000000 0.008848
0.008549 0.000000 0.008485
0.018898 0.001584 0.010137
0.000430 0.002063 0.009551
0.000664 0.000729 0.008291
0.007306 0.005699 0.013473
0.010453 0.006994 0.014636
0.021926 0.012622 0.019132
0.024592 0.011611 0.018007
0.019557 0.005113 0.011475
0.019796 0.004439 0.011065
0.006602 0.000000 0.007602
0.000000 0.002282 0.007620
0.004264 0.007104 0.013285
0.000000 0.000000 0.002588
0.000000 0.000000 0.000000
0.000000 0.000000 0.000000
0.000000 0.000000 0.000000
0.000000 0.000000 0.000000
0.007554 0.001846 0.008156
0.023728 0.008755 0.013568
0.000000 0.001815 0.005408
0.008420 0.013381 0.017430
0.000000 0.000000 0.000000
0.041764 0.048451 0.058516
0.127799 0.141004 0.154388
0.068684 0.034894 0.035128
0.000000 0.000000 0.000000
0.000000 0.000000 0.000000
0.024755 0.012127 0.014334
0.000000 0.003929 0.005693
0.009615 0.016261 0.018346
0.000000 0.000000 0.000000
0.152185 0.175022 0.187709
0.617308 0.653618 0.672788
0.569677 0.445556 0.416795
0.458902 0.331613 0.298546
0.074448 0.048856 0.045806
0.000000 0.000000 0.000000
0.000222 0.009202 0.009232
0.007389 0.015681 0.015974
0.000000 0.000000 0.000000
0.029644 0.042999 0.046897
0.454198 0.513327 0.519802
0.722132 0.706818 0.678223
0.862797 0.695719 0.617662
0.395665 0.298195 0.262673
0.000000 0.000000 0.000000
0.001013 0.012040 0.010336
0.000000 0.008965 0.007378
0.011957 0.019905 0.017756
0.000000 0.000000 0.000000
0.048146 0.061797 0.062192
0.270433 0.288540 0.276658
0.360103 0.332579 0.301745
0.206398 0.174285 0.155773
0.000000 0.000000 0.000000
0.000000 0.012532 0.008880
0.002693 0.013938 0.010197
0.002760 0.012261 0.008947
0.014396 0.022345 0.018315
0.000000 0.000000 0.000000
0.000000 0.000000 0.000000
0.000000 0.000000 0.000000
0.000000 0.000000 0.000000
0.008320 0.008183 0.005569
0.000074 0.014445 0.009211
0.001280 0.013964 0.008655
0.005992 0.017199 0.011941
0.000450 0.009020 0.003701
0.012146 0.020930 0.016562
0.036642 0.042910 0.037606
0.035221 0.038632 0.032663
0.032205 0.034256 0.028963
0.015238 0.015217 0.010046
0.000390 0.000462 0.011519
0.001543 0.000000 0.010922
0.003944 0.000571 0.011688
0.005489 0.000716 0.011960
0.009525 0.002161 0.013234
0.011539 0.001567 0.012453
0.012154 0.000517 0.011349
0.013324 0.000435 0.011445
0.013764 0.000081 0.011192
0.000033 0.001594 0.010974
0.001897 0.001959 0.011375
0.002521 0.000520 0.009856
0.004628 0.001101 0.010664
0.005195 0.000973 0.010902
0.006518 0.000000 0.009586
0.006606 0.000000 0.008363
0.011116 0.001390 0.011058
0.017370 0.003570 0.012669
0.000271 0.003811 0.011460
0.000400 0.002027 0.009435
0.007065 0.007809 0.015789
0.008645 0.007013 0.014334
0.008229 0.002123 0.008588
0.016531 0.009104 0.015823
0.029780 0.017982 0.024342
0.019262 0.007024 0.013880
0.007111 0.000000 0.007993
0.001271 0.006867 0.012712
0.000720 0.004390 0.010226
0.007249 0.009489 0.014994
0.000000 0.000000 0.000000
0.000000 0.000000 0.000000
0.000000 0.000000 0.000000
0.000000 0.000000 0.000000
0.013979 0.006887 0.012424
0.024096 0.012440 0.017243
0.001369 0.008806 0.012779
0.001616 0.007361 0.011425
0.001426 0.004306 0.007398
0.000000 0.000000 0.000000
0.193821 0.214119 0.227797
0.298915 0.304801 0.315555
0.033589 0.023754 0.028260
0.000000 0.000000 0.000000
0.011224 0.006807 0.011632
0.000380 0.009471 0.011552
0.000087 0.007436 0.009493
0.006886 0.012155 0.013703
0.000000 0.000000 0.000000
0.355212 0.387181 0.402253
0.797748 0.825366 0.837506
0.671488 0.585198 0.566101
0.252146 0.195052 0.178751
0.000000 0.000000 0.000000
0.000000 0.010588 0.010722
0.000499 0.009532 0.009521
0.011170 0.019606 0.020078
0.000000 0.000000 0.000000
0.086039 0.100891 0.105859
0.520997 0.563261 0.569156
0.808743 0.776834 0.751653
0.554089 0.497326 0.460649
0.000000 0.000000 0.000000
0.000403 0.013205 0.011488
0.002622 0.013950 0.012279
0.001902 0.011158 0.009508
0.012356 0.020183 0.018409
0.000000 0.000000 0.000000
0.000000 0.000000 0.000000
0.107126 0.113948 0.113681
0.062453 0.060356 0.055932
0.000000 0.000000 0.000000
0.000205 0.014597 0.011240
0.001748 0.014515 0.011103
0.004954 0.016015 0.012697
0.001072 0.009975 0.006747
0.025149 0.034030 0.031143
0.000000 0.000000 0.000000
0.000000 0.000000 0.000000
0.000000 0.000000 0.000000
0.032272 0.032304 0.028705
0.000263 0.000280 0.013232
0.001876 0.000305 0.013278
0.003674 0.000220 0.013141
0.005333 0.000053 0.012982
0.007398 0.000161 0.013029
0.008972 0.000090 0.012992
0.011117 0.000408 0.013340
0.013025 0.000316 0.013238
0.014122 0.000065 0.013033
0.000235 0.001864 0.013214
0.001555 0.001541 0.012856
0.004205 0.002466 0.013834
0.005438 0.001821 0.013104
0.007544 0.001656 0.012781
0.009821 0.002229 0.013371
0.013241 0.003762 0.014996
0.012673 0.001606 0.012999
0.013664 0.001423 0.012798
0.000337 0.003865 0.013307
0.002456 0.004476 0.013982
0.002287 0.002142 0.011483
0.005458 0.003826 0.013438
0.010103 0.007263 0.017105
0.010749 0.006008 0.015897
0.006529 0.000254 0.010182
0.007434 0.000000 0.008503
0.018444 0.007141 0.016527
0.000050 0.005365 0.012917
0.001891 0.005631 0.013149
0.003522 0.005494 0.013265
0.012580 0.013361 0.021124
0.000000 0.000000 0.002600
0.000846 0.000000 0.000524
0.021504 0.013276 0.019431
0.029946 0.021371 0.028724
0.005798 0.000000 0.005389
0.000000 0.007149 0.012863
0.001200 0.006646 0.012272
0.008507 0.013046 0.019293
0.000000 0.000000 0.000000
0.000000 0.000000 0.000000
0.000000 0.000000 0.002021
0.000000 0.000000 0.000000
0.000000 0.000000 0.000000
0.035948 0.026864 0.031870
0.000113 0.009136 0.013010
0.001597 0.008942 0.012731
0.009609 0.016118 0.020507
0.000000 0.000000 0.000000
0.030789 0.035542 0.041587
0.352936 0.375754 0.387183
0.255738 0.256656 0.268522
0.000000 0.000000 0.000000
0.000000 0.000000 0.000000
0.000283 0.011188 0.013245
0.002551 0.011960 0.014024
0.005420 0.013237 0.015611
0.000000 0.000000 0.000000
0.013600 0.018301 0.021872
0.532601 0.558262 0.568047
0.906553 0.914279 0.927733
0.304561 0.297560 0.296360
0.000000 0.000000 0.000000
0.000188 0.012964 0.013144
0.001874 0.013080 0.013299
0.001595 0.010677 0.010793
0.012297 0.020310 0.020530
0.000000 0.000000 0.000000
0.078304 0.090926 0.095532
0.524460 0.548606 0.559797
0.297359 0.301809 0.302983
0.000000 0.000000 0.000000
0.000204 0.014599 0.013155
0.001858 0.014670 0.013190
0.005113 0.016232 0.014772
0.002539 0.011533 0.010171
0.020523 0.028572 0.027378
0.000000 0.000000 0.000000
0.000000 0.000000 0.000000
0.000000 0.000000 0.000000
0.001637 0.000560 0.000000
0.000206 0.000212 0.014797
0.001801 0.000215 0.014806
0.003611 0.000165 0.014735
0.005423 0.000154 0.014734
0.007256 0.000178 0.014763
0.009028 0.000141 0.014722
0.010885 0.000176 0.014751
0.012819 0.000242 0.014824
0.014303 0.000156 0.014740
0.000197 0.001819 0.014792
0.001631 0.001640 0.014615
0.003749 0.001946 0.014873
0.005050 0.001307 0.014224
0.006902 0.001420 0.014407
0.008694 0.001413 0.014380
0.010690 0.001534 0.014420
0.013485 0.002436 0.015385
0.013611 0.001159 0.014124
0.000189 0.003690 0.014761
0.002004 0.003943 0.014992
0.003758 0.003849 0.015032
0.006696 0.005027 0.016069
0.005364 0.001517 0.012396
0.007535 0.001718 0.012605
0.012110 0.004449 0.015282
0.015290 0.006295 0.017554
0.011414 0.000780 0.011703
0.000110 0.005445 0.014677
0.001022 0.004656 0.013834
0.004987 0.007018 0.016192
0.000859 0.000559 0.009721
0.013358 0.012449 0.022232
0.017990 0.015813 0.025775
0.014136 0.010184 0.020354
0.003200 0.000000 0.005763
0.018824 0.009725 0.018471
0.000183 0.007381 0.014779
0.001420 0.006995 0.014449
0.000625 0.003924 0.010986
0.013462 0.016497 0.024595
0.014618 0.014438 0.021409
0.000000 0.000000 0.000000
0.000000 0.000000 0.000000
0.037610 0.031387 0.038086
0.009820 0.004185 0.012818
0.000185 0.009232 0.014778
0.001625 0.009076 0.014692
0.000000 0.004618 0.009908
0.019922 0.025021 0.031106
0.000000 0.000000 0.000000
0.000000 0.000000 0.000000
0.000000 0.000000 0.000000
0.000000 0.000000 0.000000
0.040480 0.033781 0.038282
0.000163 0.011050 0.014740
0.001323 0.010547 0.014232
0.000711 0.007788 0.011251
0.019383 0.026177 0.030312
0.000000 0.000000 0.000000
0.047801 0.054409 0.059942
0.513105 0.525170 0.532345
0.179887 0.185618 0.191572
0.000000 0.000000 0.000000
0.000196 0.012973 0.014783
0.001622 0.012784 0.014552
0.004272 0.013627 0.015310
0.012426 0.020811 0.023263
0.000000 0.000000 0.000000
0.000000 0.000000 0.000000
0.613055 0.631345 0.640856
0.450106 0.460931 0.466454
0.000000 0.000000 0.000000
0.000197 0.014590 0.014784
0.001920 0.014735 0.014963
0.003939 0.014984 0.015400
0.000000 0.005903 0.005651
0.034028 0.042929 0.043824
0.000000 0.000000 0.000000
0.000000 0.000000 0.000000
0.000000 0.000000 0.000000
0.000000 0.000000 0.000000
