experiments/learned.cube
TITLE "poppy field"
LUT_3D_SIZE 5
DOMAIN_MIN 0.0 0.0 0.0
DOMAIN_MAX 1.0 1.0 1.0
0.103633 0.107586 0.116597
0.158197 0.051159 0.051905
0.215508 0.152758 0.159612
0.501619 0.177558 0.186564
0.000000 0.000000 0.000000
0.000000 0.000000 0.000000
0.161812 0.212206 0.206473
0.394102 0.143829 0.078523
0.631227 0.133087 0.046986
0.000000 0.000000 0.000000
0.005773 0.012617 0.004158
0.041586 0.046266 0.033924
0.034501 0.046622 0.042277
0.000000 0.000000 0.000000
0.057753 0.019194 0.004227
0.000000 0.009202 0.000000
0.007923 0.015527 0.004211
0.013836 0.018250 0.006725
0.006903 0.008088 0.000000
0.010723 0.008559 0.000000
0.000182 0.014573 0.000192
0.003576 0.014534 0.000156
0.007056 0.014335 0.000000
0.011365 0.015058 0.000632
0.014407 0.014615 0.000206
0.000000 0.000000 0.000000
0.000000 0.000000 0.000000
0.000000 0.000000 0.000000
0.000000 0.000000 0.000000
0.000000 0.000000 0.000000
0.000000 0.000000 0.000000
0.206609 0.245813 0.262225
0.344914 0.257468 0.215558
0.725689 0.229342 0.117503
0.197649 0.046708 0.026960
0.000000 0.000000 0.000000
0.327530 0.325107 0.272602
0.359658 0.348495 0.301221
0.173795 0.128833 0.099711
0.028768 0.015216 0.009644
0.000000 0.008318 0.001334
0.000000 0.002854 0.000000
0.000000 0.000000 0.000000
0.003540 0.001764 0.000000
0.005841 0.004593 0.000000
0.000278 0.014670 0.003820
0.004236 0.015248 0.004342
0.007266 0.014463 0.003629
0.012653 0.016194 0.005205
0.012818 0.013333 0.002649
0.000000 0.000000 0.004022
0.010526 0.006616 0.014190
0.019364 0.008268 0.014665
0.031201 0.005715 0.010882
0.003431 0.000000 0.005996
0.002581 0.007309 0.011927
0.000000 0.000000 0.000000
0.000000 0.000000 0.001159
0.051491 0.012667 0.013065
0.028608 0.008521 0.010400
0.002718 0.010856 0.011166
0.004321 0.011692 0.013350
0.594696 0.592841 0.571938
0.865194 0.576946 0.478761
0.000000 0.000000 0.000000
0.000000 0.010824 0.007181
0.000679 0.007277 0.003421
0.009124 0.019255 0.015628
0.006453 0.003825 0.000000
0.005961 0.002570 0.000000
0.000143 0.014531 0.007451
0.005504 0.016703 0.009611
0.002373 0.009709 0.002950
0.014257 0.017871 0.010921
0.013458 0.014243 0.007234
0.000390 0.000462 0.011519
0.003944 0.000571 0.011688
0.009525 0.002161 0.013234
0.012154 0.000517 0.011349
0.013764 0.000081 0.011192
0.000271 0.003811 0.011460
0.007065 0.007809 0.015789
0.008229 0.002123 0.008588
0.029780 0.017982 0.024342
0.007111 0.000000 0.007993
0.001369 0.008806 0.012779
0.001426 0.004306 0.007398
0.193821 0.214119 0.227797
0.033589 0.023754 0.028260
0.011224 0.006807 0.011632
0.000000 0.010588 0.010722
0.011170 0.019606 0.020078
0.086039 0.100891 0.105859
0.808743 0.776834 0.751653
0.000000 0.000000 0.000000
0.000205 0.014597 0.011240
0.004954 0.016015 0.012697
0.025149 0.034030 0.031143
0.000000 0.000000 0.000000
0.032272 0.032304 0.028705
0.000206 0.000212 0.014797
0.003611 0.000165 0.014735
0.007256 0.000178 0.014763
0.010885 0.000176 0.014751
0.014303 0.000156 0.014740
0.000189 0.003690 0.014761
0.003758 0.003849 0.015032
0.005364 0.001517 0.012396
0.012110 0.004449 0.015282
0.011414 0.000780 0.011703
0.000183 0.007381 0.014779
0.000625 0.003924 0.010986
0.014618 0.014438 0.021409
0.000000 0.000000 0.000000
0.009820 0.004185 0.012818
0.000163 0.011050 0.014740
0.000711 0.007788 0.011251
0.000000 0.000000 0.000000
0.513105 0.525170 0.532345
0.000000 0.000000 0.000000
0.000197 0.014590 0.014784
0.003939 0.014984 0.015400
0.034028 0.042929 0.043824
0.000000 0.000000 0.000000
0.000000 0.000000 0.000000
